; GENERATED BY PRUSASLICER 2.1.1+WIN64 ON 2020-06-29 AT 19:34:49 UTC

; 

; EXTERNAL PERIMETERS EXTRUSION WIDTH = 0.45MM
; PERIMETERS EXTRUSION WIDTH = 0.45MM
; INFILL EXTRUSION WIDTH = 0.45MM
; SOLID INFILL EXTRUSION WIDTH = 0.45MM
; TOP INFILL EXTRUSION WIDTH = 0.40MM
; FIRST LAYER EXTRUSION WIDTH = 0.60MM

;M201 X3000 Y3000 Z100 E10000 ; SETS MAXIMUM ACCELERATIONS, MM/SEC^2
M203 X300 Y300 Z4 E20 ; SETS MAXIMUM FEEDRATES, MM/SEC
;M204 P1500 R1500 T1500 ; SETS ACCELERATION (P, T) AND RETRACT ACCELERATION (R), MM/SEC^2
M205 X10.00 Y10.00 Z0.40 E5.00 ; SETS THE JERK LIMITS, MM/SEC
M205 S0 T0 ; SETS THE MINIMUM EXTRUDING AND TRAVEL FEED RATE, MM/SEC
M104 S210 ; SET TEMPERATURE
G28 ; HOME ALL AXES
G29 ; AUTO BED LEVEALING
G1 Z1 F5000 ; LIFT NOZZLE

; M220 S
M109 S210 ; SET TEMPERATURE AND WAIT FOR IT TO BE REACHED
G21 ; SET UNITS TO MILLIMETERS
G90 ; USE ABSOLUTE COORDINATES
M83 ; USE RELATIVE DISTANCES FOR EXTRUSION
G1 X220 Y10.000 Z1.000 F7200.000
M203 E100
G1 E50 F10000
G1 E15 F600
M400
M203 E20
G1 E55 F600

G1 X200.000 Y20.000 F7200.000
G1 Z0.350 F200.000
G1 X200.000 Y140.000 E10.92910 F510.000
G1 E-3.0000

; FILAMENT GCODE
G1 E-3.50000 F3300.00000
G1 Z0.300 F7800.000
M117 L0/66
G1 X29.021 Y24.489
G1 E3.50000 F3300.00000
G1 F1500
G1 X30.121 Y23.351 E0.11634
G1 X31.128 Y22.646 E0.09039
G1 X32.246 Y22.116 E0.09088
G1 X33.437 Y21.782 E0.09088
G1 X34.660 Y21.653 E0.09039
G1 X110.824 Y21.651 E5.59696
G1 X112.194 Y21.782 E0.10117
G1 X113.510 Y22.163 E0.10068
G1 X114.738 Y22.786 E0.10117
G1 X115.828 Y23.628 E0.10117
G1 X116.741 Y24.658 E0.10117
G1 X117.446 Y25.840 E0.10117
G1 X117.917 Y27.134 E0.10117
G1 X118.139 Y28.492 E0.10117
G1 X118.150 Y85.298 E4.17443
G1 X117.927 Y86.812 E0.11242
G1 X117.395 Y88.246 E0.11242
G1 X116.577 Y89.539 E0.11242
G1 X115.514 Y90.630 E0.11194
G1 X114.506 Y91.335 E0.09039
G1 X113.388 Y91.864 E0.09088
G1 X112.197 Y92.198 E0.09088
G1 X110.974 Y92.328 E0.09039
G1 X34.737 Y92.329 E5.60237
G1 X33.165 Y92.141 E0.11634
G1 X31.670 Y91.620 E0.11634
G1 X30.316 Y90.787 E0.11683
G1 X29.178 Y89.687 E0.11634
G1 X28.476 Y88.685 E0.08990
G1 X27.950 Y87.580 E0.08990
G1 X27.617 Y86.410 E0.08941
G1 X27.481 Y85.194 E0.08990
G1 X27.479 Y28.883 E4.13806
G1 X27.671 Y27.319 E0.11585
G1 X28.193 Y25.831 E0.11585
G1 X28.989 Y24.540 E0.11144
G1 X29.443 Y24.822 F7800.000
G1 F1500
G1 X30.482 Y23.747 E0.10984
G1 X31.423 Y23.094 E0.08419
G1 X32.455 Y22.610 E0.08372
G1 X33.552 Y22.305 E0.08372
G1 X34.686 Y22.188 E0.08372
G1 X110.824 Y22.187 E5.59507
G1 X112.098 Y22.309 E0.09410
G1 X113.322 Y22.665 E0.09362
G1 X114.462 Y23.246 E0.09410
G1 X115.474 Y24.031 E0.09410
G1 X116.321 Y24.991 E0.09410
G1 X116.970 Y26.087 E0.09362
G1 X117.405 Y27.292 E0.09410
G1 X117.607 Y28.556 E0.09410
G1 X117.615 Y85.261 E4.16700
G1 X117.409 Y86.674 E0.10493
G1 X116.912 Y88.013 E0.10493
G1 X116.147 Y89.218 E0.10493
G1 X115.152 Y90.234 E0.10446
G1 X114.211 Y90.887 E0.08419
G1 X113.180 Y91.370 E0.08372
G1 X112.082 Y91.675 E0.08372
G1 X110.949 Y91.792 E0.08372
G1 X34.746 Y91.793 E5.59981
G1 X33.278 Y91.617 E0.10870
G1 X31.888 Y91.131 E0.10823
G1 X30.630 Y90.352 E0.10870
G1 X29.574 Y89.326 E0.10823
G1 X28.930 Y88.401 E0.08277
G1 X28.446 Y87.377 E0.08325
G1 X28.140 Y86.293 E0.08277
G1 X28.016 Y85.167 E0.08325
G1 X28.014 Y28.894 E4.13530
G1 X28.193 Y27.438 E0.10776
G1 X28.682 Y26.049 E0.10823
G1 X29.412 Y24.873 E0.10170
G1 X29.865 Y25.156 F7800.000
G1 F1500
G1 X30.844 Y24.143 E0.10350
G1 X31.704 Y23.551 E0.07672
G1 X32.656 Y23.107 E0.07718
G1 X33.668 Y22.829 E0.07718
G1 X34.707 Y22.723 E0.07672
G1 X110.823 Y22.723 E5.59348
G1 X111.998 Y22.835 E0.08668
G1 X113.136 Y23.167 E0.08714
G1 X114.191 Y23.708 E0.08714
G1 X115.121 Y24.434 E0.08668
G1 X115.899 Y25.321 E0.08668
G1 X116.496 Y26.338 E0.08668
G1 X116.894 Y27.455 E0.08714
G1 X117.074 Y28.621 E0.08668
G1 X117.081 Y85.225 E4.15964
G1 X116.891 Y86.539 E0.09754
G1 X116.431 Y87.778 E0.09709
G1 X115.722 Y88.892 E0.09709
G1 X114.791 Y89.838 E0.09754
G1 X113.931 Y90.430 E0.07672
G1 X112.979 Y90.874 E0.07718
G1 X111.966 Y91.152 E0.07718
G1 X110.927 Y91.257 E0.07672
G1 X34.755 Y91.258 E5.59757
G1 X33.401 Y91.096 E0.10025
G1 X32.108 Y90.642 E0.10070
G1 X30.944 Y89.918 E0.10070
G1 X29.970 Y88.964 E0.10025
G1 X29.380 Y88.109 E0.07627
G1 X28.940 Y87.169 E0.07627
G1 X28.661 Y86.170 E0.07627
G1 X28.551 Y85.138 E0.07627
G1 X28.550 Y28.904 E4.13239
G1 X28.717 Y27.550 E0.10025
G1 X29.171 Y26.270 E0.09980
G1 X29.833 Y25.207 E0.09206
G1 E-3.50000 F3300.00000
G1 X31.876 Y27.046 F7800.000
G1 E3.50000 F3300.00000
G1 F1500
G1 X32.873 Y26.049 E0.10366
G1 X33.255 Y25.821 E0.03265
G1 X33.688 Y25.642 E0.03446
G1 X34.357 Y25.509 E0.05014
G1 X111.335 Y25.514 E5.65682
G1 X111.905 Y25.629 E0.04268
G1 X112.456 Y25.861 E0.04396
G1 X112.853 Y26.120 E0.03483
G1 X113.597 Y26.846 E0.07638
G1 X113.984 Y27.422 E0.05101
G1 X114.196 Y27.962 E0.04264
G1 X114.299 Y28.529 E0.04233
G1 X114.299 Y85.450 E4.18290
G1 X114.166 Y86.119 E0.05014
G1 X113.986 Y86.553 E0.03446
G1 X113.759 Y86.934 E0.03265
G1 X112.761 Y87.932 E0.10366
G1 X112.380 Y88.159 E0.03265
G1 X111.946 Y88.339 E0.03446
G1 X111.277 Y88.472 E0.05014
G1 X34.357 Y88.472 E5.65254
G1 X33.688 Y88.339 E0.05014
G1 X33.255 Y88.159 E0.03446
G1 X32.873 Y87.932 E0.03265
G1 X31.876 Y86.934 E0.10366
G1 X31.648 Y86.553 E0.03265
G1 X31.469 Y86.119 E0.03446
G1 X31.336 Y85.450 E0.05014
G1 X31.336 Y28.530 E4.18283
G1 X31.469 Y27.861 E0.05014
G1 X31.648 Y27.428 E0.03446
G1 X31.845 Y27.098 E0.02824
G1 X32.317 Y27.351 F7800.000
G1 F1500
G1 X33.178 Y26.490 E0.08954
G1 X33.479 Y26.308 E0.02583
G1 X33.869 Y26.147 E0.03098
G1 X34.384 Y26.044 E0.03857
G1 X111.308 Y26.050 E5.65289
G1 X111.725 Y26.134 E0.03123
G1 X112.190 Y26.326 E0.03700
G1 X112.500 Y26.524 E0.02697
G1 X113.203 Y27.210 E0.07221
G1 X113.498 Y27.649 E0.03889
G1 X113.675 Y28.090 E0.03488
G1 X113.763 Y28.555 E0.03482
G1 X113.763 Y85.424 E4.17906
G1 X113.661 Y85.939 E0.03857
G1 X113.499 Y86.328 E0.03098
G1 X113.318 Y86.629 E0.02583
G1 X112.456 Y87.491 E0.08954
G1 X112.155 Y87.672 E0.02583
G1 X111.766 Y87.834 E0.03098
G1 X111.251 Y87.936 E0.03857
G1 X34.383 Y87.936 E5.64868
G1 X33.869 Y87.834 E0.03857
G1 X33.479 Y87.672 E0.03098
G1 X33.178 Y87.491 E0.02583
G1 X32.317 Y86.629 E0.08954
G1 X32.135 Y86.328 E0.02583
G1 X31.974 Y85.939 E0.03098
G1 X31.871 Y85.424 E0.03857
G1 X31.871 Y28.557 E4.17896
G1 X31.974 Y28.042 E0.03857
G1 X32.135 Y27.652 E0.03098
G1 X32.286 Y27.403 E0.02142
G1 X32.756 Y27.660 F7800.000
G1 F1500
G1 X33.487 Y26.929 E0.07596
G1 X33.705 Y26.794 E0.01884
G1 X34.049 Y26.652 E0.02740
G1 X34.410 Y26.580 E0.02701
G1 X111.278 Y26.585 E5.64873
G1 X111.586 Y26.652 E0.02316
G1 X111.929 Y26.794 E0.02733
G1 X112.149 Y26.929 E0.01890
G1 X112.809 Y27.574 E0.06782
G1 X113.014 Y27.880 E0.02706
G1 X113.156 Y28.222 E0.02726
G1 X113.227 Y28.583 E0.02701
G1 X113.227 Y85.398 E4.17509
G1 X113.156 Y85.758 E0.02701
G1 X113.013 Y86.103 E0.02740
G1 X112.879 Y86.321 E0.01884
G1 X112.148 Y87.052 E0.07596
G1 X111.929 Y87.186 E0.01884
G1 X111.585 Y87.329 E0.02740
G1 X111.225 Y87.401 E0.02701
G1 X34.410 Y87.401 E5.64481
G1 X34.049 Y87.329 E0.02701
G1 X33.705 Y87.186 E0.02740
G1 X33.487 Y87.052 E0.01884
G1 X32.756 Y86.321 E0.07596
G1 X32.621 Y86.103 E0.01884
G1 X32.479 Y85.758 E0.02740
G1 X32.407 Y85.398 E0.02701
G1 X32.407 Y28.583 E4.17509
G1 X32.479 Y28.222 E0.02701
G1 X32.621 Y27.878 E0.02740
G1 X32.724 Y27.711 E0.01443
G1 X33.107 Y28.106 F7800.000
G1 F1500
G1 X33.191 Y27.973 E0.01160
G1 X33.799 Y27.364 E0.06322
G1 X33.933 Y27.280 E0.01160
G1 X34.230 Y27.157 E0.02365
G1 X34.436 Y27.116 E0.01544
G1 X111.247 Y27.121 E5.64455
G1 X111.401 Y27.155 E0.01160
G1 X111.702 Y27.280 E0.02389
G1 X111.836 Y27.365 E0.01166
G1 X112.413 Y27.935 E0.05962
G1 X112.529 Y28.109 E0.01538
G1 X112.651 Y28.403 E0.02340
G1 X112.692 Y28.609 E0.01544
G1 X112.692 Y85.371 E4.17122
G1 X112.651 Y85.578 E0.01544
G1 X112.528 Y85.875 E0.02365
G1 X112.443 Y86.008 E0.01160
G1 X111.835 Y86.616 E0.06322
G1 X111.702 Y86.701 E0.01160
G1 X111.404 Y86.824 E0.02365
G1 X111.198 Y86.865 E0.01544
G1 X34.436 Y86.865 E5.64094
G1 X34.230 Y86.824 E0.01544
G1 X33.933 Y86.701 E0.02365
G1 X33.799 Y86.616 E0.01160
G1 X33.191 Y86.008 E0.06322
G1 X33.107 Y85.875 E0.01160
G1 X32.984 Y85.578 E0.02365
G1 X32.943 Y85.371 E0.01544
G1 X32.943 Y28.609 E4.17122
G1 X32.984 Y28.403 E0.01544
G1 X33.084 Y28.161 E0.01924
G1 X33.488 Y28.584 F7800.000
G1 F1500
G1 X33.619 Y28.294 E0.02335
G1 X34.121 Y27.793 E0.05214
G1 X34.462 Y27.651 E0.02714
G1 X111.172 Y27.651 E5.63708
G1 X111.513 Y27.793 E0.02714
G1 X112.015 Y28.294 E0.05214
G1 X112.156 Y28.636 E0.02714
G1 X112.156 Y85.345 E4.16736
G1 X112.015 Y85.686 E0.02714
G1 X111.513 Y86.188 E0.05214
G1 X111.172 Y86.329 E0.02714
G1 X34.462 Y86.329 E5.63708
G1 X34.121 Y86.188 E0.02714
G1 X33.619 Y85.686 E0.05214
G1 X33.478 Y85.345 E0.02714
G1 X33.478 Y28.643 E4.16682
G1 X34.055 Y28.617 F7800.000
G1 F1500
G1 X34.444 Y28.228 E0.04044
G1 X34.542 Y28.187 E0.00783
G1 X111.092 Y28.187 E5.62537
G1 X111.191 Y28.228 E0.00783
G1 X111.580 Y28.617 E0.04044
G1 X111.621 Y28.715 E0.00783
G1 X111.621 Y85.265 E4.15565
G1 X111.580 Y85.364 E0.00783
G1 X111.191 Y85.753 E0.04044
G1 X111.092 Y85.794 E0.00783
G1 X34.542 Y85.794 E5.62537
G1 X34.444 Y85.753 E0.00783
G1 X34.055 Y85.364 E0.04044
G1 X34.014 Y85.265 E0.00783
G1 X34.014 Y28.715 E4.15565
G1 X34.032 Y28.672 E0.00342
G1 X34.549 Y28.879 F7800.000
G1 F1500
G1 X34.706 Y28.723 E0.01630
G1 X110.928 Y28.723 E5.60124
G1 X111.085 Y28.879 E0.01630
G1 X111.085 Y85.101 E4.13152
G1 X110.928 Y85.258 E0.01630
G1 X34.706 Y85.258 E5.60124
G1 X34.549 Y85.101 E0.01630
G1 X34.549 Y28.939 E4.12711
G1 E-3.50000 F3300.00000
G1 X35.117 Y84.690 F7800.000
G1 E3.50000 F3300.00000
G1 F1500
G1 X35.117 Y29.290 E4.07112
G1 X110.517 Y29.290 E5.54084
G1 X110.517 Y84.690 E4.07112
G1 X35.177 Y84.690 E5.53643
G1 X35.240 Y84.310 F7800.000
G1 X35.653 Y84.155
G1 F1500
G1 X35.653 Y29.826 E3.99240
G1 X109.982 Y29.826 E5.46212
G1 X109.982 Y84.155 E3.99240
G1 X35.713 Y84.155 E5.45771
G1 X36.188 Y83.619 F7800.000
G1 F1500
G1 X36.188 Y30.362 E3.91368
G1 X109.446 Y30.362 E5.38340
G1 X109.446 Y83.619 E3.91368
G1 X36.248 Y83.619 E5.37899
G1 X37.486 Y83.405 F7800.000
G1 F1500
G1 X36.644 Y82.563 E0.08751
G1 X36.644 Y81.805 E0.05568
G1 X38.002 Y83.164 E0.14121
G1 X38.760 Y83.164 E0.05568
G1 X36.644 Y81.048 E0.21996
G1 X36.644 Y80.290 E0.05568
G1 X39.517 Y83.164 E0.29871
G1 X40.275 Y83.164 E0.05568
G1 X36.644 Y79.532 E0.37746
G1 X36.644 Y78.775 E0.05568
G1 X41.033 Y83.164 E0.45621
G1 X41.790 Y83.164 E0.05568
G1 X36.644 Y78.017 E0.53496
G1 X36.644 Y77.260 E0.05568
G1 X42.548 Y83.164 E0.61371
G1 X43.306 Y83.164 E0.05568
G1 X36.644 Y76.502 E0.69246
G1 X36.644 Y75.744 E0.05568
G1 X44.063 Y83.164 E0.77121
G1 X44.821 Y83.164 E0.05568
G1 X36.644 Y74.987 E0.84996
G1 X36.644 Y74.229 E0.05568
G1 X45.578 Y83.164 E0.92871
G1 X46.336 Y83.164 E0.05568
G1 X36.644 Y73.471 E1.00746
G1 X36.644 Y72.714 E0.05568
G1 X47.094 Y83.164 E1.08621
G1 X47.851 Y83.164 E0.05568
G1 X36.644 Y71.956 E1.16496
G1 X36.644 Y71.199 E0.05568
G1 X48.609 Y83.164 E1.24371
G1 X49.367 Y83.164 E0.05568
G1 X36.644 Y70.441 E1.32247
G1 X36.644 Y69.683 E0.05568
G1 X50.124 Y83.164 E1.40122
G1 X50.882 Y83.164 E0.05568
G1 X36.644 Y68.926 E1.47997
G1 X36.644 Y68.168 E0.05568
G1 X51.639 Y83.164 E1.55872
G1 X52.397 Y83.164 E0.05568
G1 X36.644 Y67.411 E1.63747
G1 X36.644 Y66.653 E0.05568
G1 X53.155 Y83.164 E1.71622
G1 X53.912 Y83.164 E0.05568
G1 X36.644 Y65.895 E1.79497
G1 X36.644 Y65.138 E0.05568
G1 X54.670 Y83.164 E1.87372
G1 X55.427 Y83.164 E0.05568
G1 X36.644 Y64.380 E1.95247
G1 X36.644 Y63.622 E0.05568
G1 X56.185 Y83.164 E2.03122
G1 X56.943 Y83.164 E0.05568
G1 X36.644 Y62.865 E2.10997
G1 X36.644 Y62.107 E0.05568
G1 X57.700 Y83.164 E2.18872
G1 X58.458 Y83.164 E0.05568
G1 X36.644 Y61.350 E2.26747
G1 X36.644 Y60.592 E0.05568
G1 X59.216 Y83.164 E2.34622
G1 X59.973 Y83.164 E0.05568
G1 X36.644 Y59.834 E2.42497
G1 X36.644 Y59.077 E0.05568
G1 X60.731 Y83.164 E2.50372
G1 X61.488 Y83.164 E0.05568
G1 X36.644 Y58.319 E2.58247
G1 X36.644 Y57.561 E0.05568
G1 X62.246 Y83.164 E2.66122
G1 X63.004 Y83.164 E0.05568
G1 X36.644 Y56.804 E2.73997
G1 X36.644 Y56.046 E0.05568
G1 X63.761 Y83.164 E2.81872
G1 X64.519 Y83.164 E0.05568
G1 X36.644 Y55.289 E2.89747
G1 X36.644 Y54.531 E0.05568
G1 X65.277 Y83.164 E2.97622
G1 X66.034 Y83.164 E0.05568
G1 X36.644 Y53.773 E3.05497
G1 X36.644 Y53.016 E0.05568
G1 X66.792 Y83.164 E3.13372
G1 X67.549 Y83.164 E0.05568
G1 X36.644 Y52.258 E3.21247
G1 X36.644 Y51.500 E0.05568
G1 X68.307 Y83.164 E3.29122
G1 X69.065 Y83.164 E0.05568
G1 X36.644 Y50.743 E3.36997
G1 X36.644 Y49.985 E0.05568
G1 X69.822 Y83.164 E3.44872
G1 X70.580 Y83.164 E0.05568
G1 X36.644 Y49.228 E3.52747
G1 X36.644 Y48.470 E0.05568
G1 X71.338 Y83.164 E3.60622
G1 X72.095 Y83.164 E0.05568
G1 X36.644 Y47.712 E3.68497
G1 X36.644 Y46.955 E0.05568
G1 X72.853 Y83.164 E3.76372
G1 X73.610 Y83.164 E0.05568
G1 X36.644 Y46.197 E3.84247
G1 X36.644 Y45.439 E0.05568
G1 X74.368 Y83.164 E3.92122
G1 X75.126 Y83.164 E0.05568
G1 X36.644 Y44.682 E3.99997
G1 X36.644 Y43.924 E0.05568
G1 X75.883 Y83.164 E4.07872
G1 X76.641 Y83.164 E0.05568
G1 X36.644 Y43.167 E4.15747
G1 X36.644 Y42.409 E0.05568
G1 X77.398 Y83.164 E4.23622
G1 X78.156 Y83.164 E0.05568
G1 X36.644 Y41.651 E4.31498
G1 X36.644 Y40.894 E0.05568
G1 X78.914 Y83.164 E4.39373
G1 X79.671 Y83.164 E0.05568
G1 X36.644 Y40.136 E4.47248
G1 X36.644 Y39.379 E0.05568
G1 X80.429 Y83.164 E4.55123
G1 X81.187 Y83.164 E0.05568
G1 X36.644 Y38.621 E4.62998
G1 X36.644 Y37.863 E0.05568
G1 X81.944 Y83.164 E4.70873
G1 X82.702 Y83.164 E0.05568
G1 X36.644 Y37.106 E4.78748
G1 X36.644 Y36.348 E0.05568
G1 X83.459 Y83.164 E4.86623
G1 X84.217 Y83.164 E0.05568
G1 X36.644 Y35.590 E4.94498
G1 X36.644 Y34.833 E0.05568
G1 X84.975 Y83.164 E5.02373
G1 X85.732 Y83.164 E0.05568
G1 X36.644 Y34.075 E5.10248
G1 X36.644 Y33.318 E0.05568
G1 X86.490 Y83.164 E5.18123
G1 X87.248 Y83.164 E0.05568
G1 X36.644 Y32.560 E5.25998
G1 X36.644 Y31.802 E0.05568
G1 X88.005 Y83.164 E5.33873
G1 X88.763 Y83.164 E0.05568
G1 X36.644 Y31.045 E5.41748
G1 X36.644 Y30.817 E0.01675
G1 X37.173 Y30.817 E0.03894
G1 X89.520 Y83.164 E5.44116
G1 X90.278 Y83.164 E0.05568
G1 X37.931 Y30.817 E5.44116
G1 X38.689 Y30.817 E0.05568
G1 X91.036 Y83.164 E5.44116
G1 X91.793 Y83.164 E0.05568
G1 X39.446 Y30.817 E5.44116
G1 X40.204 Y30.817 E0.05568
G1 X92.551 Y83.164 E5.44116
G1 X93.309 Y83.164 E0.05568
G1 X40.962 Y30.817 E5.44116
G1 X41.719 Y30.817 E0.05568
G1 X94.066 Y83.164 E5.44116
G1 X94.824 Y83.164 E0.05568
G1 X42.477 Y30.817 E5.44116
G1 X43.234 Y30.817 E0.05568
G1 X95.581 Y83.164 E5.44116
G1 X96.339 Y83.164 E0.05568
G1 X43.992 Y30.817 E5.44116
G1 X44.750 Y30.817 E0.05568
G1 X97.097 Y83.164 E5.44116
G1 X97.854 Y83.164 E0.05568
G1 X45.507 Y30.817 E5.44116
G1 X46.265 Y30.817 E0.05568
G1 X98.612 Y83.164 E5.44116
G1 X99.370 Y83.164 E0.05568
G1 X47.022 Y30.817 E5.44116
G1 X47.780 Y30.817 E0.05568
G1 X100.127 Y83.164 E5.44116
G1 X100.885 Y83.164 E0.05568
G1 X48.538 Y30.817 E5.44116
G1 X49.295 Y30.817 E0.05568
G1 X101.642 Y83.164 E5.44116
G1 X102.400 Y83.164 E0.05568
G1 X50.053 Y30.817 E5.44116
G1 X50.811 Y30.817 E0.05568
G1 X103.158 Y83.164 E5.44116
G1 X103.915 Y83.164 E0.05568
G1 X51.568 Y30.817 E5.44116
G1 X52.326 Y30.817 E0.05568
G1 X104.673 Y83.164 E5.44116
G1 X105.430 Y83.164 E0.05568
G1 X53.083 Y30.817 E5.44116
G1 X53.841 Y30.817 E0.05568
G1 X106.188 Y83.164 E5.44116
G1 X106.946 Y83.164 E0.05568
G1 X54.599 Y30.817 E5.44116
G1 X55.356 Y30.817 E0.05568
G1 X107.703 Y83.164 E5.44116
G1 X108.461 Y83.164 E0.05568
G1 X56.114 Y30.817 E5.44116
G1 X56.872 Y30.817 E0.05568
