; GENERATED BY PRUSASLICER 2.1.1+WIN64 ON 2020-05-03 AT 15:01:14 UTC

; 

; EXTERNAL PERIMETERS EXTRUSION WIDTH = 0.45MM
; PERIMETERS EXTRUSION WIDTH = 0.45MM
; INFILL EXTRUSION WIDTH = 0.45MM
; SOLID INFILL EXTRUSION WIDTH = 0.45MM
; TOP INFILL EXTRUSION WIDTH = 0.40MM
; FIRST LAYER EXTRUSION WIDTH = 0.60MM

;M201 X3000 Y3000 Z100 E10000 ; SETS MAXIMUM ACCELERATIONS, MM/SEC^2
M203 X300 Y300 Z4 E20 ; SETS MAXIMUM FEEDRATES, MM/SEC
;M204 P1500 R1500 T1500 ; SETS ACCELERATION (P, T) AND RETRACT ACCELERATION (R), MM/SEC^2
M205 X10.00 Y10.00 Z0.40 E5.00 ; SETS THE JERK LIMITS, MM/SEC
M205 S0 T0 ; SETS THE MINIMUM EXTRUDING AND TRAVEL FEED RATE, MM/SEC
M104 S205 ; SET TEMPERATURE
G28 ; HOME ALL AXES
G29 ; AUTO BED LEVEALING
G1 Z1 F5000 ; LIFT NOZZLE

; M220 S
M109 S205 ; SET TEMPERATURE AND WAIT FOR IT TO BE REACHED
G21 ; SET UNITS TO MILLIMETERS
G90 ; USE ABSOLUTE COORDINATES
M83 ; USE RELATIVE DISTANCES FOR EXTRUSION
G1 X220 Y10.000 Z1.000 F7200.000
M203 E100
G1 E700 F10000
G1 E55 F600
M400
M203 E20
G1 E55 F600

G1 X200.000 Y20.000 F7200.000
G1 Z0.350 F200.000
G1 X200.000 Y140.000 E10.92910 F510.000
G1 E-3.0000

; FILAMENT GCODE
G1 E-3.50000 F3300.00000
G1 Z0.300 F7800.000
M117 L0/74
G1 X29.119 Y23.424
G1 E3.50000 F3300.00000
G1 F1500
G1 X30.595 Y22.673 E0.10844
G1 X42.940 Y18.553 E0.85207
G1 X44.545 Y18.234 E0.10713
G1 X102.172 Y18.208 E3.77281
G1 X103.279 Y18.293 E0.07267
G1 X104.360 Y18.543 E0.07267
G1 X116.525 Y22.597 E0.83944
G1 X117.492 Y23.005 E0.06873
G1 X118.844 Y23.892 E0.10582
G1 X119.964 Y25.047 E0.10539
G1 X120.805 Y26.420 E0.10539
G1 X121.327 Y27.942 E0.10539
G1 X121.505 Y29.529 E0.10452
G1 X121.502 Y90.747 E4.00793
G1 X121.343 Y92.081 E0.08795
G1 X120.943 Y93.364 E0.08795
G1 X120.316 Y94.552 E0.08795
G1 X119.478 Y95.611 E0.08839
G1 X118.179 Y96.691 E0.11061
G1 X116.668 Y97.446 E0.11061
G1 X104.314 Y101.564 E0.85251
G1 X103.265 Y101.803 E0.07048
G1 X102.185 Y101.886 E0.07092
G1 X44.571 Y101.862 E3.77194
G1 X42.946 Y101.542 E0.10844
G1 X30.649 Y97.441 E0.84864
G1 X29.292 Y96.780 E0.09885
G1 X28.098 Y95.855 E0.09885
G1 X27.138 Y94.733 E0.09667
G1 X26.422 Y93.442 E0.09667
G1 X25.980 Y92.040 E0.09624
G1 X25.827 Y90.571 E0.09667
G1 X25.830 Y29.319 E4.01012
G1 X25.993 Y27.992 E0.08751
G1 X26.394 Y26.717 E0.08751
G1 X27.023 Y25.530 E0.08795
G1 X27.854 Y24.483 E0.08751
G1 X29.073 Y23.463 E0.10407
G1 X29.414 Y23.874 F7800.000
G1 F1500
G1 X30.797 Y23.169 E0.10162
G1 X43.100 Y19.064 E0.84910
G1 X44.608 Y18.766 E0.10061
G1 X102.172 Y18.743 E3.76871
G1 X103.199 Y18.822 E0.06744
G1 X104.203 Y19.055 E0.06744
G1 X116.348 Y23.103 E0.83813
G1 X117.209 Y23.462 E0.06112
G1 X118.478 Y24.284 E0.09894
G1 X119.533 Y25.366 E0.09894
G1 X120.323 Y26.654 E0.09894
G1 X120.809 Y28.078 E0.09852
G1 X120.969 Y29.529 E0.09558
G1 X120.967 Y90.721 E4.00616
G1 X120.818 Y91.973 E0.08257
G1 X120.443 Y93.170 E0.08215
G1 X119.854 Y94.279 E0.08215
G1 X119.072 Y95.260 E0.08215
G1 X117.873 Y96.251 E0.10187
G1 X116.474 Y96.947 E0.10229
G1 X104.170 Y101.048 E0.84910
G1 X103.185 Y101.273 E0.06617
G1 X102.177 Y101.350 E0.06617
G1 X44.625 Y101.329 E3.76787
G1 X43.104 Y101.030 E0.10145
G1 X30.844 Y96.942 E0.84614
G1 X29.566 Y96.320 E0.09307
G1 X28.449 Y95.450 E0.09265
G1 X27.566 Y94.411 E0.08929
G1 X26.908 Y93.216 E0.08929
G1 X26.503 Y91.921 E0.08887
G1 X26.362 Y90.564 E0.08929
G1 X26.365 Y29.353 E4.00743
G1 X26.515 Y28.114 E0.08173
G1 X26.891 Y26.917 E0.08215
G1 X27.481 Y25.809 E0.08215
G1 X28.259 Y24.834 E0.08173
G1 X29.368 Y23.912 E0.09439
G1 X29.709 Y24.326 F7800.000
G1 F1500
G1 X31.004 Y23.663 E0.09527
G1 X43.260 Y19.576 E0.84584
G1 X44.665 Y19.299 E0.09374
G1 X102.172 Y19.279 E3.76494
G1 X103.121 Y19.352 E0.06230
G1 X104.047 Y19.568 E0.06230
G1 X116.171 Y23.608 E0.83665
G1 X116.937 Y23.925 E0.05422
G1 X118.116 Y24.681 E0.09173
G1 X119.102 Y25.685 E0.09213
G1 X119.840 Y26.883 E0.09213
G1 X120.289 Y28.210 E0.09173
G1 X120.434 Y29.530 E0.08690
G1 X120.432 Y90.701 E4.00486
G1 X120.294 Y91.860 E0.07642
G1 X119.944 Y92.974 E0.07642
G1 X119.398 Y93.998 E0.07602
G1 X118.667 Y94.909 E0.07642
G1 X117.565 Y95.813 E0.09334
G1 X116.281 Y96.447 E0.09374
G1 X104.018 Y100.534 E0.84625
G1 X103.103 Y100.744 E0.06149
G1 X102.172 Y100.814 E0.06109
G1 X44.678 Y100.795 E3.76413
G1 X43.260 Y100.518 E0.09454
G1 X31.032 Y96.440 E0.84394
G1 X29.844 Y95.862 E0.08650
G1 X28.808 Y95.052 E0.08609
G1 X27.999 Y94.095 E0.08206
G1 X27.396 Y92.995 E0.08206
G1 X27.025 Y91.804 E0.08166
G1 X26.898 Y90.557 E0.08206
G1 X26.900 Y29.374 E4.00567
G1 X27.040 Y28.221 E0.07602
G1 X27.389 Y27.114 E0.07602
G1 X27.937 Y26.090 E0.07602
G1 X28.665 Y25.185 E0.07602
G1 X29.662 Y24.364 E0.08457
G1 E-3.50000 F3300.00000
G1 X54.644 Y26.065 F7800.000
G1 E3.50000 F3300.00000
G1 F1500
G1 X92.685 Y26.065 E2.49053
G1 X92.688 Y25.043 E0.06690
G1 X92.782 Y24.534 E0.03390
G1 X93.047 Y23.890 E0.04560
G1 X93.378 Y23.411 E0.03812
G1 X94.030 Y22.759 E0.06038
G1 X94.503 Y22.431 E0.03771
G1 X95.035 Y22.199 E0.03799
G1 X95.706 Y22.065 E0.04476
G1 X102.627 Y22.065 E0.45311
G1 X103.246 Y22.183 E0.04127
G1 X103.762 Y22.395 E0.03653
G1 X104.153 Y22.638 E0.03014
G1 X104.975 Y23.437 E0.07503
G1 X105.275 Y23.871 E0.03457
G1 X105.525 Y24.453 E0.04146
G1 X105.636 Y24.973 E0.03477
G1 X105.644 Y26.065 E0.07153
G1 X114.733 Y26.076 E0.59508
G1 X115.314 Y26.206 E0.03897
G1 X115.954 Y26.501 E0.04616
G1 X116.308 Y26.765 E0.02885
G1 X116.953 Y27.410 E0.05974
G1 X117.332 Y27.979 E0.04476
G1 X117.545 Y28.519 E0.03799
G1 X117.647 Y29.086 E0.03771
G1 X117.647 Y91.008 E4.05401
G1 X117.524 Y91.642 E0.04229
G1 X117.238 Y92.290 E0.04637
G1 X116.947 Y92.690 E0.03237
G1 X116.302 Y93.334 E0.05964
G1 X115.734 Y93.713 E0.04476
G1 X115.194 Y93.926 E0.03799
G1 X114.627 Y94.028 E0.03771
G1 X105.644 Y94.028 E0.58811
G1 X105.636 Y95.121 E0.07153
G1 X105.525 Y95.640 E0.03477
G1 X105.275 Y96.222 E0.04146
G1 X104.975 Y96.656 E0.03457
G1 X104.153 Y97.455 E0.07503
G1 X103.762 Y97.698 E0.03014
G1 X103.246 Y97.910 E0.03653
G1 X102.627 Y98.028 E0.04127
G1 X95.706 Y98.028 E0.45311
G1 X95.035 Y97.894 E0.04476
G1 X94.503 Y97.663 E0.03799
G1 X94.030 Y97.335 E0.03771
G1 X93.378 Y96.682 E0.06038
G1 X93.047 Y96.203 E0.03812
G1 X92.782 Y95.559 E0.04560
G1 X92.688 Y95.050 E0.03390
G1 X92.685 Y94.028 E0.06690
G1 X54.646 Y94.028 E2.49037
G1 X54.643 Y95.050 E0.06690
G1 X54.550 Y95.559 E0.03390
G1 X54.285 Y96.203 E0.04560
G1 X53.954 Y96.682 E0.03812
G1 X53.302 Y97.335 E0.06038
G1 X52.828 Y97.663 E0.03771
G1 X52.296 Y97.894 E0.03799
G1 X51.626 Y98.028 E0.04476
G1 X44.705 Y98.028 E0.45311
G1 X44.086 Y97.910 E0.04127
G1 X43.569 Y97.698 E0.03653
G1 X43.178 Y97.455 E0.03014
G1 X42.357 Y96.656 E0.07503
G1 X42.056 Y96.222 E0.03457
G1 X41.806 Y95.640 E0.04146
G1 X41.695 Y95.121 E0.03477
G1 X41.688 Y94.028 E0.07153
G1 X32.598 Y94.017 E0.59508
G1 X32.017 Y93.888 E0.03897
G1 X31.377 Y93.592 E0.04616
G1 X31.024 Y93.329 E0.02885
G1 X30.379 Y92.683 E0.05974
G1 X29.999 Y92.115 E0.04476
G1 X29.787 Y91.575 E0.03799
G1 X29.684 Y91.008 E0.03771
G1 X29.684 Y29.093 E4.05353
G1 X29.795 Y28.486 E0.04039
G1 X29.991 Y27.996 E0.03452
G1 X30.223 Y27.605 E0.02976
G1 X31.021 Y26.767 E0.07576
G1 X31.597 Y26.381 E0.04541
G1 X32.030 Y26.201 E0.03070
G1 X32.460 Y26.092 E0.02908
G1 X41.685 Y26.066 E0.60395
G1 X41.689 Y25.032 E0.06771
G1 X41.803 Y24.463 E0.03798
G1 X42.021 Y23.937 E0.03731
G1 X42.306 Y23.498 E0.03423
G1 X43.114 Y22.691 E0.07477
G1 X43.616 Y22.372 E0.03894
G1 X44.168 Y22.158 E0.03877
G1 X44.715 Y22.065 E0.03633
G1 X51.686 Y22.070 E0.45636
G1 X52.255 Y22.186 E0.03803
G1 X52.762 Y22.395 E0.03590
G1 X53.153 Y22.638 E0.03015
G1 X53.975 Y23.437 E0.07503
G1 X54.275 Y23.871 E0.03457
G1 X54.525 Y24.453 E0.04146
G1 X54.636 Y24.973 E0.03477
G1 X54.643 Y26.005 E0.06760
G1 X54.112 Y26.601 F7800.000
G1 F1500
G1 X93.219 Y26.601 E2.56031
G1 X93.224 Y25.071 E0.10015
G1 X93.302 Y24.662 E0.02726
G1 X93.506 Y24.167 E0.03502
G1 X93.775 Y23.771 E0.03137
G1 X94.390 Y23.156 E0.05696
G1 X94.782 Y22.889 E0.03102
G1 X95.219 Y22.703 E0.03108
G1 X95.732 Y22.601 E0.03428
G1 X102.599 Y22.601 E0.44961
G1 X103.114 Y22.703 E0.03436
G1 X103.504 Y22.865 E0.02760
G1 X103.805 Y23.046 E0.02301
G1 X104.553 Y23.768 E0.06807
G1 X104.797 Y24.113 E0.02765
G1 X105.009 Y24.598 E0.03467
G1 X105.101 Y25.007 E0.02741
G1 X105.112 Y26.601 E0.10437
G1 X114.651 Y26.606 E0.62448
G1 X115.122 Y26.706 E0.03155
G1 X115.661 Y26.950 E0.03874
G1 X115.944 Y27.158 E0.02298
G1 X116.556 Y27.770 E0.05665
G1 X116.846 Y28.206 E0.03428
G1 X117.024 Y28.646 E0.03108
G1 X117.112 Y29.112 E0.03102
G1 X117.112 Y90.980 E4.05049
G1 X117.006 Y91.504 E0.03500
G1 X116.762 Y92.042 E0.03865
G1 X116.554 Y92.325 E0.02298
G1 X115.942 Y92.936 E0.05665
G1 X115.507 Y93.227 E0.03428
G1 X115.066 Y93.405 E0.03108
G1 X114.601 Y93.493 E0.03102
G1 X105.112 Y93.493 E0.62122
G1 X105.101 Y95.087 E0.10438
G1 X105.009 Y95.495 E0.02741
G1 X104.797 Y95.980 E0.03467
G1 X104.553 Y96.326 E0.02765
G1 X103.805 Y97.047 E0.06807
G1 X103.504 Y97.229 E0.02301
G1 X103.114 Y97.390 E0.02760
G1 X102.599 Y97.493 E0.03436
G1 X95.732 Y97.493 E0.44961
G1 X95.219 Y97.390 E0.03428
G1 X94.782 Y97.204 E0.03108
G1 X94.390 Y96.937 E0.03102
G1 X93.775 Y96.322 E0.05696
G1 X93.506 Y95.926 E0.03137
G1 X93.302 Y95.431 E0.03502
G1 X93.224 Y95.022 E0.02726
G1 X93.219 Y93.493 E0.10015
G1 X54.113 Y93.493 E2.56027
G1 X54.108 Y95.022 E0.10015
G1 X54.029 Y95.431 E0.02726
G1 X53.826 Y95.926 E0.03502
G1 X53.556 Y96.322 E0.03137
G1 X52.941 Y96.937 E0.05696
G1 X52.550 Y97.204 E0.03102
G1 X52.113 Y97.390 E0.03108
G1 X51.599 Y97.493 E0.03428
G1 X44.732 Y97.493 E0.44961
G1 X44.217 Y97.390 E0.03436
G1 X43.828 Y97.229 E0.02760
G1 X43.527 Y97.047 E0.02301
G1 X42.778 Y96.326 E0.06807
G1 X42.535 Y95.980 E0.02765
G1 X42.323 Y95.495 E0.03467
G1 X42.231 Y95.087 E0.02741
G1 X42.219 Y93.493 E0.10437
G1 X32.681 Y93.487 E0.62448
G1 X32.210 Y93.387 E0.03155
G1 X31.671 Y93.143 E0.03874
G1 X31.388 Y92.935 E0.02298
G1 X30.776 Y92.323 E0.05665
G1 X30.485 Y91.888 E0.03428
G1 X30.308 Y91.447 E0.03108
G1 X30.220 Y90.982 E0.03102
G1 X30.220 Y29.117 E4.05027
G1 X30.303 Y28.660 E0.03041
G1 X30.480 Y28.216 E0.03128
G1 X30.665 Y27.908 E0.02351
G1 X31.386 Y27.160 E0.06800
G1 X31.826 Y26.865 E0.03468
G1 X32.215 Y26.704 E0.02759
G1 X32.557 Y26.620 E0.02301
G1 X42.219 Y26.601 E0.63258
G1 X42.225 Y25.062 E0.10074
G1 X42.322 Y24.600 E0.03090
G1 X42.504 Y24.170 E0.03061
G1 X42.737 Y23.816 E0.02774
G1 X43.429 Y23.124 E0.06409
G1 X43.836 Y22.861 E0.03171
G1 X44.336 Y22.667 E0.03507
G1 X44.737 Y22.601 E0.02661
G1 X51.656 Y22.606 E0.45302
G1 X52.118 Y22.705 E0.03090
G1 X52.504 Y22.865 E0.02736
G1 X52.805 Y23.046 E0.02301
G1 X53.553 Y23.768 E0.06807
G1 X53.797 Y24.113 E0.02765
G1 X54.009 Y24.598 E0.03467
G1 X54.101 Y25.007 E0.02741
G1 X54.112 Y26.541 E0.10045
G1 E-3.50000 F3300.00000
G1 X104.577 Y27.136 F7800.000
G1 E3.50000 F3300.00000
G1 F1500
G1 X114.573 Y27.136 E0.65444
G1 X114.935 Y27.209 E0.02417
G1 X115.372 Y27.402 E0.03127
G1 X115.581 Y27.553 E0.01688
G1 X116.158 Y28.130 E0.05346
G1 X116.362 Y28.436 E0.02406
G1 X116.504 Y28.779 E0.02430
G1 X116.576 Y29.139 E0.02406
G1 X116.576 Y90.954 E4.04696
G1 X116.503 Y91.316 E0.02417
G1 X116.311 Y91.753 E0.03127
G1 X116.159 Y91.962 E0.01688
G1 X115.582 Y92.539 E0.05346
G1 X115.276 Y92.743 E0.02406
G1 X114.934 Y92.885 E0.02430
G1 X114.573 Y92.957 E0.02406
G1 X104.577 Y92.957 E0.65445
G1 X104.571 Y95.004 E0.13403
G1 X104.505 Y95.311 E0.02056
G1 X104.339 Y95.701 E0.02772
G1 X104.159 Y95.962 E0.02078
G1 X103.497 Y96.608 E0.06054
G1 X103.278 Y96.743 E0.01684
G1 X102.934 Y96.885 E0.02441
G1 X102.573 Y96.957 E0.02406
G1 X95.758 Y96.957 E0.44616
G1 X95.398 Y96.885 E0.02406
G1 X95.055 Y96.743 E0.02430
G1 X94.750 Y96.539 E0.02406
G1 X94.173 Y95.963 E0.05333
G1 X93.968 Y95.655 E0.02427
G1 X93.810 Y95.261 E0.02778
G1 X93.755 Y94.953 E0.02042
G1 X93.755 Y92.957 E0.13071
G1 X53.576 Y92.957 E2.63052
G1 X53.576 Y94.953 E0.13071
G1 X53.521 Y95.261 E0.02042
G1 X53.363 Y95.655 E0.02778
G1 X53.158 Y95.963 E0.02427
G1 X52.582 Y96.539 E0.05333
G1 X52.276 Y96.743 E0.02406
G1 X51.934 Y96.885 E0.02430
G1 X51.573 Y96.957 E0.02406
G1 X44.758 Y96.957 E0.44616
G1 X44.398 Y96.885 E0.02406
G1 X44.053 Y96.743 E0.02441
G1 X43.834 Y96.608 E0.01684
G1 X43.173 Y95.962 E0.06054
G1 X42.992 Y95.701 E0.02078
G1 X42.826 Y95.311 E0.02772
G1 X42.761 Y95.004 E0.02056
G1 X42.755 Y92.957 E0.13403
G1 X32.759 Y92.957 E0.65444
G1 X32.397 Y92.884 E0.02417
G1 X31.960 Y92.691 E0.03127
G1 X31.751 Y92.540 E0.01688
G1 X31.173 Y91.963 E0.05346
G1 X30.969 Y91.657 E0.02406
G1 X30.827 Y91.315 E0.02430
G1 X30.755 Y90.954 E0.02406
G1 X30.755 Y29.140 E4.04693
G1 X30.810 Y28.833 E0.02042
G1 X30.969 Y28.437 E0.02790
G1 X31.105 Y28.215 E0.01705
G1 X31.749 Y27.555 E0.06040
G1 X32.055 Y27.350 E0.02411
G1 X32.400 Y27.207 E0.02440
G1 X32.649 Y27.148 E0.01679
G1 X42.755 Y27.136 E0.66167
G1 X42.755 Y25.139 E0.13075
G1 X42.827 Y24.779 E0.02406
G1 X42.969 Y24.437 E0.02424
G1 X43.138 Y24.173 E0.02048
G1 X43.788 Y23.523 E0.06022
G1 X44.055 Y23.350 E0.02080
G1 X44.502 Y23.177 E0.03139
G1 X44.757 Y23.136 E0.01689
G1 X51.627 Y23.142 E0.44976
G1 X51.934 Y23.208 E0.02062
G1 X52.278 Y23.351 E0.02435
G1 X52.497 Y23.486 E0.01684
G1 X53.159 Y24.131 E0.06054
G1 X53.339 Y24.393 E0.02078
G1 X53.505 Y24.782 E0.02772
G1 X53.571 Y25.089 E0.02056
G1 X53.577 Y27.136 E0.13403
G1 X93.755 Y27.136 E2.63047
G1 X93.755 Y25.140 E0.13071
G1 X93.810 Y24.833 E0.02042
G1 X93.968 Y24.439 E0.02778
G1 X94.173 Y24.130 E0.02427
G1 X94.750 Y23.554 E0.05333
G1 X95.055 Y23.350 E0.02406
G1 X95.398 Y23.208 E0.02430
G1 X95.758 Y23.136 E0.02406
G1 X102.573 Y23.136 E0.44616
G1 X102.934 Y23.208 E0.02406
G1 X103.278 Y23.351 E0.02441
G1 X103.497 Y23.486 E0.01684
G1 X104.159 Y24.131 E0.06054
G1 X104.339 Y24.393 E0.02078
G1 X104.505 Y24.782 E0.02772
G1 X104.571 Y25.089 E0.02056
G1 X104.577 Y27.076 E0.13010
G1 X104.040 Y27.672 F7800.000
G1 F1500
G1 X114.547 Y27.672 E0.68785
G1 X114.751 Y27.713 E0.01365
G1 X115.089 Y27.857 E0.02406
G1 X115.220 Y27.949 E0.01044
G1 X115.761 Y28.491 E0.05012
G1 X115.878 Y28.665 E0.01376
G1 X115.999 Y28.960 E0.02085
G1 X116.040 Y29.166 E0.01376
G1 X116.040 Y90.928 E4.04353
G1 X116.000 Y91.132 E0.01365
G1 X115.855 Y91.470 E0.02406
G1 X115.763 Y91.600 E0.01044
G1 X115.222 Y92.142 E0.05012
G1 X115.047 Y92.258 E0.01376
G1 X114.753 Y92.380 E0.02085
G1 X114.547 Y92.421 E0.01376
G1 X104.040 Y92.421 E0.68785
G1 X104.040 Y94.928 E0.16409
G1 X103.999 Y95.134 E0.01376
G1 X103.878 Y95.428 E0.02085
G1 X103.761 Y95.602 E0.01370
G1 X103.184 Y96.172 E0.05311
G1 X103.050 Y96.257 E0.01038
G1 X102.753 Y96.380 E0.02107
G1 X102.547 Y96.421 E0.01376
G1 X95.785 Y96.421 E0.44272
G1 X95.579 Y96.380 E0.01376
G1 X95.284 Y96.258 E0.02085
G1 X95.110 Y96.142 E0.01376
G1 X94.571 Y95.603 E0.04990
G1 X94.455 Y95.429 E0.01365
G1 X94.318 Y95.088 E0.02406
G1 X94.291 Y94.931 E0.01044
G1 X94.291 Y92.421 E0.16431
G1 X53.040 Y92.421 E2.70065
G1 X53.040 Y94.931 E0.16431
G1 X53.013 Y95.088 E0.01044
G1 X52.877 Y95.429 E0.02406
G1 X52.761 Y95.603 E0.01365
G1 X52.222 Y96.142 E0.04990
G1 X52.047 Y96.258 E0.01376
G1 X51.753 Y96.380 E0.02085
G1 X51.547 Y96.421 E0.01376
G1 X44.785 Y96.421 E0.44272
G1 X44.579 Y96.380 E0.01376
G1 X44.281 Y96.257 E0.02107
G1 X44.147 Y96.172 E0.01038
G1 X43.570 Y95.602 E0.05311
G1 X43.454 Y95.428 E0.01370
G1 X43.332 Y95.134 E0.02085
G1 X43.291 Y94.928 E0.01376
G1 X43.291 Y92.421 E0.16409
G1 X32.785 Y92.421 E0.68785
G1 X32.580 Y92.381 E0.01365
G1 X32.242 Y92.236 E0.02406
G1 X32.112 Y92.144 E0.01044
G1 X31.571 Y91.603 E0.05012
G1 X31.454 Y91.428 E0.01376
G1 X31.332 Y91.134 E0.02085
G1 X31.291 Y90.928 E0.01376
G1 X31.291 Y29.162 E4.04374
G1 X31.318 Y29.005 E0.01044
